X:1
T:Under Her Apron
M:4/4
L:1/8
K:Bb
 F| F2 FG B2c-B| GF FF F3 F| c2 cde-d cB| Af ff f2 ef| f2 fe f2 ed|\
 cc AA F2 GA|B-cd-=e fe dc| A2 G2 G3||

